; G-Code generated by Simplify3D(R) Version 4.0.0
; Apr 17, 2018 at 9:52:59 AM
; Settings Summary
;   processName,Process1
;   applyToModels,8020mount
;   profileName,CenterPiece (modified)
;   profileVersion,2018-02-23 18:38:36
;   baseProfile,Monoprice Select Mini (modified)
;   printMaterial,PLA
;   printQuality,Medium
;   printExtruders,
;   extruderName,Primary Extruder
;   extruderToolheadNumber,0
;   extruderDiameter,0.4
;   extruderAutoWidth,1
;   extruderWidth,0.48
;   extrusionMultiplier,1.05
;   extruderUseRetract,1
;   extruderRetractionDistance,2.5
;   extruderExtraRestartDistance,0
;   extruderRetractionZLift,0
;   extruderRetractionSpeed,1800
;   extruderUseCoasting,1
;   extruderCoastingDistance,0.2
;   extruderUseWipe,1
;   extruderWipeDistance,2
;   primaryExtruder,0
;   layerHeight,0.2
;   topSolidLayers,2
;   bottomSolidLayers,2
;   perimeterOutlines,2
;   printPerimetersInsideOut,1
;   startPointOption,2
;   startPointOriginX,0
;   startPointOriginY,0
;   sequentialIslands,0
;   spiralVaseMode,0
;   firstLayerHeightPercentage,90
;   firstLayerWidthPercentage,100
;   firstLayerUnderspeed,0.5
;   useRaft,0
;   raftExtruder,0
;   raftTopLayers,3
;   raftBaseLayers,2
;   raftOffset,3
;   raftSeparationDistance,0.14
;   raftTopInfill,100
;   aboveRaftSpeedMultiplier,0.3
;   useSkirt,0
;   skirtExtruder,0
;   skirtLayers,1
;   skirtOutlines,3
;   skirtOffset,0
;   usePrimePillar,0
;   primePillarExtruder,999
;   primePillarWidth,12
;   primePillarLocation,7
;   primePillarSpeedMultiplier,1
;   useOozeShield,0
;   oozeShieldExtruder,999
;   oozeShieldOffset,2
;   oozeShieldOutlines,1
;   oozeShieldSidewallShape,1
;   oozeShieldSidewallAngle,30
;   oozeShieldSpeedMultiplier,1
;   infillExtruder,0
;   internalInfillPattern,Triangular
;   externalInfillPattern,Rectilinear
;   infillPercentage,25
;   outlineOverlapPercentage,30
;   infillExtrusionWidthPercentage,120
;   minInfillLength,5
;   infillLayerInterval,1
;   internalInfillAngles,0,60,-60
;   overlapInternalInfillAngles,1
;   externalInfillAngles,45,-45
;   generateSupport,0
;   supportExtruder,0
;   supportInfillPercentage,30
;   supportExtraInflation,0
;   supportBaseLayers,0
;   denseSupportExtruder,0
;   denseSupportLayers,0
;   denseSupportInfillPercentage,70
;   supportLayerInterval,1
;   supportHorizontalPartOffset,0.3
;   supportUpperSeparationLayers,1
;   supportLowerSeparationLayers,1
;   supportType,1
;   supportGridSpacing,4
;   maxOverhangAngle,46
;   supportAngles,0
;   temperatureName,Primary Extruder,Heated Bed
;   temperatureNumber,0,0
;   temperatureSetpointCount,1,1
;   temperatureSetpointLayers,1,1
;   temperatureSetpointTemperatures,210,60
;   temperatureStabilizeAtStartup,1,1
;   temperatureHeatedBed,0,1
;   temperatureRelayBetweenLayers,0,0
;   temperatureRelayBetweenLoops,0,0
;   fanLayers,1,2
;   fanSpeeds,0,100
;   blipFanToFullPower,0
;   adjustSpeedForCooling,1
;   minSpeedLayerTime,15
;   minCoolingSpeedSlowdown,20
;   increaseFanForCooling,0
;   minFanLayerTime,45
;   maxCoolingFanSpeed,100
;   increaseFanForBridging,0
;   bridgingFanSpeed,100
;   use5D,1
;   relativeEdistances,0
;   allowEaxisZeroing,1
;   independentExtruderAxes,0
;   includeM10123,0
;   stickySupport,1
;   applyToolheadOffsets,0
;   gcodeXoffset,0
;   gcodeYoffset,0
;   gcodeZoffset,0
;   overrideMachineDefinition,1
;   machineTypeOverride,0
;   strokeXoverride,120
;   strokeYoverride,120
;   strokeZoverride,120
;   originOffsetXoverride,0
;   originOffsetYoverride,0
;   originOffsetZoverride,0
;   homeXdirOverride,-1
;   homeYdirOverride,-1
;   homeZdirOverride,-1
;   flipXoverride,1
;   flipYoverride,-1
;   flipZoverride,1
;   toolheadOffsets,0,0|0,0|0,0|0,0|0,0|0,0
;   overrideFirmwareConfiguration,1
;   firmwareTypeOverride,RepRap (Marlin/Repetier/Sprinter)
;   GPXconfigOverride,r2
;   baudRateOverride,115200
;   overridePrinterModels,1
;   printerModelsOverride
;   startingGcode,G28 ; home all axes,G1 Z0.2 F1200 ; raise nozzle,G92 E0 ; reset extrusion distance,G1 X100 Y0 E12 F600 ; purge nozzle
;   layerChangeGcode,
;   retractionGcode,
;   toolChangeGcode,
;   endingGcode,M104 S0 ; turn off extruder,M140 S0 ; turn off bed,G1 X20 Y110 F1000 ; prepare for part removal,M84 ; disable motors
;   exportFileFormat,gcode
;   celebration,0
;   celebrationSong,Funky Town
;   postProcessing,
;   defaultSpeed,2400
;   outlineUnderspeed,0.5
;   solidInfillUnderspeed,0.8
;   supportUnderspeed,0.8
;   rapidXYspeed,3600
;   rapidZspeed,1002
;   minBridgingArea,50
;   bridgingExtraInflation,0
;   bridgingExtrusionMultiplier,1
;   bridgingSpeedMultiplier,1
;   useFixedBridgingAngle,0
;   fixedBridgingAngle,0
;   applyBridgingToPerimeters,0
;   filamentDiameters,1.75|1.75|1.75|1.75|1.75|1.75
;   filamentPricesPerKg,46|46|46|46|46|46
;   filamentDensities,1.25|1.25|1.25|1.25|1.25|1.25
;   useMinPrintHeight,0
;   minPrintHeight,0
;   useMaxPrintHeight,0
;   maxPrintHeight,0
;   useDiaphragm,0
;   diaphragmLayerInterval,20
;   robustSlicing,1
;   mergeAllIntoSolid,0
;   onlyRetractWhenCrossingOutline,1
;   retractBetweenLayers,1
;   useRetractionMinTravel,0
;   retractionMinTravel,3
;   retractWhileWiping,1
;   onlyWipeOutlines,1
;   avoidCrossingOutline,0
;   maxMovementDetourFactor,3
;   toolChangeRetractionDistance,12
;   toolChangeExtraRestartDistance,-0.5
;   toolChangeRetractionSpeed,600
;   externalThinWallType,0
;   internalThinWallType,2
;   thinWallAllowedOverlapPercentage,10
;   singleExtrusionMinLength,1
;   singleExtrusionMinPrintingWidthPercentage,50
;   singleExtrusionMaxPrintingWidthPercentage,200
;   singleExtrusionEndpointExtension,0.2
;   horizontalSizeCompensation,0
G90
M82
M106 S0
M140 S60
M190 S60
M104 S210 T0
M109 S210 T0
G28 ; home all axes
G1 Z0.2 F1200 ; raise nozzle
G92 E0 ; reset extrusion distance
G1 X100 Y0 E12 F600 ; purge nozzle
G92 E0
G1 E-2.5000 F1800
G1 Z0.180 F1002
; process Process1
; layer 1, Z = 0.180
T0
; tool H0.200 W0.480
; inner perimeter
G1 X35.530 Y49.042 F3600
G1 E0.0000 F540
G92 E0
G1 X36.152 Y48.606 E0.0318 F900
G1 X36.841 Y48.285 E0.0637
G1 X37.574 Y48.089 E0.0955
G1 X38.352 Y48.021 E0.1282
G1 X78.160 Y48.020 E1.7965
G1 X79.261 Y47.937 E1.8427
G1 X80.357 Y47.682 E1.8899
G1 X81.390 Y47.265 E1.9366
G1 X82.329 Y46.696 E1.9826
G1 X83.234 Y45.912 E2.0328
G1 X83.487 Y46.027 E2.0444
G1 X83.487 Y73.974 E3.2156
G1 X83.234 Y74.090 E3.2273
G1 X82.329 Y73.305 E3.2775
G1 X81.390 Y72.735 E3.3235
G1 X80.357 Y72.318 E3.3702
G1 X79.261 Y72.063 E3.4174
G1 X78.173 Y71.981 E3.4631
G1 X38.362 Y71.980 E5.1315
G1 X37.574 Y71.911 E5.1646
G1 X36.841 Y71.714 E5.1965
G1 X36.152 Y71.393 E5.2283
G1 X35.530 Y70.958 E5.2601
G1 X34.993 Y70.421 E5.2919
G1 X34.558 Y69.799 E5.3238
G1 X34.237 Y69.110 E5.3556
G1 X34.040 Y68.377 E5.3874
G1 X33.972 Y67.599 E5.4201
G1 X33.971 Y52.411 E6.0566
G1 X34.040 Y51.623 E6.0898
G1 X34.237 Y50.890 E6.1216
G1 X34.558 Y50.201 E6.1534
G1 X34.993 Y49.579 E6.1853
G1 X35.389 Y49.184 E6.2087
G1 X35.530 Y49.042 F900
; outer perimeter
G1 X35.221 Y48.673 F3600
G92 E0
G1 X35.911 Y48.189 E0.0353 F600
G1 X36.676 Y47.833 E0.0707
G1 X37.491 Y47.614 E0.1060
G1 X38.331 Y47.541 E0.1414
G1 X78.142 Y47.540 E1.8098
G1 X79.188 Y47.461 E1.8538
G1 X80.212 Y47.223 E1.8978
G1 X81.174 Y46.835 E1.9413
G1 X82.046 Y46.306 E1.9840
G1 X82.796 Y45.656 E2.0256
G1 X83.125 Y45.285 E2.0464
G1 X83.413 Y44.893 E2.0668
G1 X83.661 Y44.481 E2.0869
G1 X83.867 Y44.051 E2.1069
G1 X83.967 Y43.776 E2.1192
G1 X83.967 Y76.226 E3.4791
G1 X83.869 Y75.957 E3.4911
G1 X83.664 Y75.526 E3.5111
G1 X83.417 Y75.113 E3.5312
G1 X83.130 Y74.721 E3.5516
G1 X82.801 Y74.349 E3.5724
G1 X82.046 Y73.694 E3.6143
G1 X81.174 Y73.165 E3.6570
G1 X80.212 Y72.777 E3.7005
G1 X79.188 Y72.539 E3.7445
G1 X78.155 Y72.461 E3.7880
G1 X38.342 Y72.460 E5.4565
G1 X37.491 Y72.386 E5.4923
G1 X36.676 Y72.167 E5.5276
G1 X35.912 Y71.811 E5.5630
G1 X35.221 Y71.327 E5.5983
G1 X34.624 Y70.731 E5.6337
G1 X34.140 Y70.039 E5.6690
G1 X33.784 Y69.275 E5.7044
G1 X33.565 Y68.460 E5.7397
G1 X33.492 Y67.620 E5.7751
G1 X33.491 Y52.390 E6.4133
G1 X33.565 Y51.540 E6.4491
G1 X33.784 Y50.725 E6.4844
G1 X34.140 Y49.960 E6.5198
G1 X34.624 Y49.269 E6.5551
G1 X35.079 Y48.814 E6.5821
G1 X35.221 Y48.673 F600
G1 X35.911 Y48.189 F2400
G1 X36.676 Y47.833 F2400
G1 X37.491 Y47.614 F2400
G1 X38.291 Y47.544 F2400
; gap fill
G1 X83.372 Y74.401 F3600
G92 E0
G1 X83.485 Y74.514 E0.0067 F960
G1 X83.626 Y74.655 F960
; solid layer
G1 X82.830 Y46.706 F3600
G92 E0
G1 X83.151 Y47.027 E0.0190 F960
G1 X83.151 Y47.706 E0.0475
G1 X82.456 Y47.011 E0.0886
G1 X82.034 Y47.268 E0.1093
G1 X83.151 Y48.385 E0.1756
G1 X83.151 Y49.064 E0.2040
G1 X81.611 Y47.524 E0.2953
G1 X81.541 Y47.567 E0.2987
G1 X81.138 Y47.729 E0.3169
G1 X83.151 Y49.743 E0.4362
G1 X83.151 Y50.421 E0.4647
G1 X80.654 Y47.925 E0.6127
G1 X80.458 Y48.004 E0.6215
G1 X80.130 Y48.080 E0.6356
G1 X83.151 Y51.100 E0.8146
G1 X83.151 Y51.779 E0.8431
G1 X79.580 Y48.208 E1.0548
G1 X79.312 Y48.270 E1.0663
G1 X78.987 Y48.294 E1.0799
G1 X83.151 Y52.458 E1.3267
G1 X83.151 Y53.137 E1.3551
G1 X78.356 Y48.342 E1.6393
G1 X78.173 Y48.356 E1.6470
G1 X77.691 Y48.356 E1.6672
G1 X83.151 Y53.815 E1.9907
G1 X83.151 Y54.494 E2.0192
G1 X77.013 Y48.356 E2.3830
G1 X76.334 Y48.356 E2.4114
G1 X83.151 Y55.173 E2.8154
G1 X83.151 Y55.852 E2.8439
G1 X75.655 Y48.356 E3.2881
G1 X74.976 Y48.356 E3.3166
G1 X83.151 Y56.531 E3.8011
G1 X83.151 Y57.210 E3.8295
G1 X74.297 Y48.356 E4.3542
G1 X73.619 Y48.356 E4.3827
G1 X83.151 Y57.888 E4.9476
G1 X83.151 Y58.567 E4.9761
G1 X72.940 Y48.356 E5.5813
G1 X72.261 Y48.356 E5.6097
G1 X83.151 Y59.246 E6.2551
G1 X83.151 Y59.925 E6.2836
G1 X71.582 Y48.356 E6.9692
G1 X70.903 Y48.356 E6.9976
G1 X83.151 Y60.604 E7.7235
G1 X83.151 Y61.283 E7.7520
G1 X70.225 Y48.356 E8.5181
G1 X69.546 Y48.356 E8.5465
G1 X83.151 Y61.961 E9.3528
G1 X83.151 Y62.640 E9.3813
G1 X68.867 Y48.356 E10.2279
G1 X68.188 Y48.356 E10.2563
G1 X83.151 Y63.319 E11.1431
G1 X83.151 Y63.998 E11.1715
G1 X67.509 Y48.356 E12.0986
G1 X66.831 Y48.356 E12.1270
G1 X83.151 Y64.677 E13.0943
G1 X83.151 Y65.355 E13.1227
G1 X66.152 Y48.356 E14.1302
G1 X65.473 Y48.356 E14.1586
G1 X83.151 Y66.034 E15.2064
G1 X83.151 Y66.713 E15.2348
G1 X64.794 Y48.356 E16.3227
G1 X64.115 Y48.356 E16.3512
G1 X83.151 Y67.392 E17.4794
G1 X83.151 Y68.071 E17.5078
G1 X63.436 Y48.356 E18.6762
G1 X62.758 Y48.356 E18.7047
G1 X83.151 Y68.750 E19.9133
G1 X83.151 Y69.428 E19.9418
G1 X62.079 Y48.356 E21.1906
G1 X61.400 Y48.356 E21.2191
G1 X83.151 Y70.107 E22.5082
G1 X83.151 Y70.786 E22.5366
G1 X60.721 Y48.356 E23.8659
G1 X60.042 Y48.356 E23.8944
G1 X83.151 Y71.465 E25.2639
G1 X83.151 Y72.144 E25.2924
G1 X59.364 Y48.356 E26.7022
G1 X58.685 Y48.356 E26.7306
G1 X83.151 Y72.823 E28.1807
G1 X83.151 Y73.501 E28.2091
G1 X58.006 Y48.356 E29.6994
G1 X57.327 Y48.356 E29.7278
G1 X81.312 Y72.341 E31.1493
G1 X80.458 Y71.996 E31.1878
G1 X80.237 Y71.945 E31.1974
G1 X56.648 Y48.356 E32.5954
G1 X55.970 Y48.357 E32.6238
G1 X79.353 Y71.740 E34.0097
G1 X79.312 Y71.730 E34.0114
G1 X78.611 Y71.677 E34.0409
G1 X55.291 Y48.357 E35.4230
G1 X54.612 Y48.357 E35.4514
G1 X77.900 Y71.645 E36.8317
G1 X77.222 Y71.645 E36.8601
G1 X53.933 Y48.357 E38.2403
G1 X53.254 Y48.357 E38.2688
G1 X76.543 Y71.645 E39.6490
G1 X75.864 Y71.645 E39.6775
G1 X52.576 Y48.357 E41.0577
G1 X51.897 Y48.357 E41.0861
G1 X75.185 Y71.645 E42.4663
G1 X74.506 Y71.645 E42.4948
G1 X51.218 Y48.357 E43.8750
G1 X50.539 Y48.357 E43.9035
G1 X73.827 Y71.645 E45.2837
G1 X73.149 Y71.645 E45.3121
G1 X49.860 Y48.357 E46.6923
G1 X49.182 Y48.357 E46.7208
G1 X72.470 Y71.645 E48.1010
G1 X71.791 Y71.645 E48.1294
G1 X48.503 Y48.357 E49.5096
G1 X47.824 Y48.357 E49.5381
G1 X71.112 Y71.645 E50.9183
G1 X70.433 Y71.645 E50.9468
G1 X47.145 Y48.357 E52.3270
G1 X46.466 Y48.357 E52.3554
G1 X69.754 Y71.645 E53.7356
G1 X69.076 Y71.645 E53.7641
G1 X45.787 Y48.357 E55.1443
G1 X45.109 Y48.357 E55.1727
G1 X68.397 Y71.645 E56.5529
G1 X67.718 Y71.645 E56.5814
G1 X44.430 Y48.357 E57.9615
G1 X43.751 Y48.357 E57.9900
G1 X67.039 Y71.645 E59.3702
G1 X66.360 Y71.645 E59.3986
G1 X43.072 Y48.357 E60.7788
G1 X42.393 Y48.357 E60.8073
G1 X65.681 Y71.645 E62.1875
G1 X65.002 Y71.645 E62.2159
G1 X41.715 Y48.357 E63.5961
G1 X41.036 Y48.357 E63.6246
G1 X64.324 Y71.645 E65.0047
G1 X63.645 Y71.645 E65.0332
G1 X40.357 Y48.357 E66.4134
G1 X39.678 Y48.357 E66.4418
G1 X62.966 Y71.645 E67.8220
G1 X62.287 Y71.645 E67.8505
G1 X38.999 Y48.357 E69.2306
G1 X38.367 Y48.357 E69.2571
G1 X38.324 Y48.361 E69.2589
G1 X61.608 Y71.645 E70.6389
G1 X60.929 Y71.645 E70.6673
G1 X37.700 Y48.415 E72.0441
G1 X37.633 Y48.421 E72.0469
G1 X37.155 Y48.549 E72.0676
G1 X60.251 Y71.645 E73.4364
G1 X59.572 Y71.645 E73.4649
G1 X36.665 Y48.738 E74.8224
G1 X36.321 Y48.899 E74.8384
G1 X36.219 Y48.970 E74.8436
G1 X58.893 Y71.645 E76.1874
G1 X58.214 Y71.644 E76.2159
G1 X35.819 Y49.250 E77.5431
G1 X35.747 Y49.301 E77.5468
G1 X35.469 Y49.578 E77.5633
G1 X57.535 Y71.644 E78.8711
G1 X56.856 Y71.644 E78.8995
G1 X35.151 Y49.939 E80.1859
G1 X34.872 Y50.339 E80.2063
G1 X56.178 Y71.644 E81.4691
G1 X55.499 Y71.644 E81.4975
G1 X34.651 Y50.796 E82.7331
G1 X34.553 Y51.005 E82.7427
G1 X34.475 Y51.299 E82.7555
G1 X54.820 Y71.644 E83.9613
G1 X54.141 Y71.644 E83.9897
G1 X34.357 Y51.860 E85.1623
G1 X34.307 Y52.426 E85.1861
G1 X34.307 Y52.489 E85.1888
G1 X53.462 Y71.644 E86.3240
G1 X52.783 Y71.644 E86.3525
G1 X34.307 Y53.168 E87.4475
G1 X34.307 Y53.847 E87.4759
G1 X52.105 Y71.644 E88.5307
G1 X51.426 Y71.644 E88.5592
G1 X34.307 Y54.526 E89.5737
G1 X34.307 Y55.205 E89.6022
G1 X50.747 Y71.644 E90.5765
G1 X50.068 Y71.644 E90.6050
G1 X34.307 Y55.884 E91.5390
G1 X34.307 Y56.562 E91.5675
G1 X49.389 Y71.644 E92.4613
G1 X48.710 Y71.644 E92.4898
G1 X34.307 Y57.241 E93.3434
G1 X34.307 Y57.920 E93.3719
G1 X48.031 Y71.644 E94.1852
G1 X47.353 Y71.644 E94.2137
G1 X34.307 Y58.599 E94.9868
G1 X34.307 Y59.278 E95.0153
G1 X46.674 Y71.644 E95.7482
G1 X45.995 Y71.644 E95.7767
G1 X34.307 Y59.957 E96.4693
G1 X34.308 Y60.636 E96.4978
G1 X45.316 Y71.644 E97.1502
G1 X44.637 Y71.644 E97.1787
G1 X34.308 Y61.314 E97.7909
G1 X34.308 Y61.993 E97.8193
G1 X43.958 Y71.644 E98.3913
G1 X43.280 Y71.644 E98.4197
G1 X34.308 Y62.672 E98.9515
G1 X34.308 Y63.351 E98.9799
G1 X42.601 Y71.644 E99.4714
G1 X41.922 Y71.644 E99.4999
G1 X34.308 Y64.030 E99.9512
G1 X34.308 Y64.709 E99.9796
G1 X41.243 Y71.644 E100.3906
G1 X40.564 Y71.644 E100.4191
G1 X34.308 Y65.388 E100.7899
G1 X34.308 Y66.066 E100.8183
G1 X39.885 Y71.644 E101.1489
G1 X39.207 Y71.644 E101.1773
G1 X34.308 Y66.745 E101.4677
G1 X34.308 Y67.424 E101.4961
G1 X38.528 Y71.644 E101.7462
G1 X38.377 Y71.644 E101.7525
G1 X37.798 Y71.593 E101.7769
G1 X34.358 Y68.153 E101.9808
G1 X34.372 Y68.318 E101.9877
G1 X34.553 Y68.995 E102.0171
G1 X34.582 Y69.056 E102.0199
G1 X36.754 Y71.228 E102.1486
G1 X36.895 Y71.369 F960
G92 E0
G1 E-2.5000 F1800
; layer 2, Z = 0.380
M106 S255
; inner perimeter
G1 X36.841 Y71.714 F3600
G1 Z0.380 F1002
G1 E0.0000 F1800
G92 E0
G1 X36.152 Y71.393 E0.0318 F1800
G1 X35.530 Y70.958 E0.0637
G1 X34.993 Y70.421 E0.0955
G1 X34.558 Y69.799 E0.1273
G1 X34.237 Y69.110 E0.1591
G1 X34.040 Y68.377 E0.1910
G1 X33.971 Y67.589 E0.2241
G1 X33.971 Y52.411 E0.8602
G1 X34.040 Y51.623 E0.8933
G1 X34.237 Y50.890 E0.9252
G1 X34.558 Y50.201 E0.9570
G1 X34.993 Y49.579 E0.9888
G1 X35.530 Y49.042 E1.0206
G1 X36.152 Y48.606 E1.0525
G1 X36.841 Y48.286 E1.0843
G1 X37.574 Y48.089 E1.1161
G1 X38.362 Y48.020 E1.1493
G1 X78.051 Y48.020 E2.8125
G1 X79.151 Y47.937 E2.8588
G1 X80.247 Y47.682 E2.9059
G1 X81.280 Y47.265 E2.9526
G1 X82.219 Y46.696 E2.9986
G1 X83.024 Y45.998 E3.0433
